polaris-icons/icons/new-icons/ConfettiMajor.svg

<svg width="20" height="20" viewBox="0 0 20 20" fill="none" xmlns="http://www.w3.org/2000/svg">
<path d="M10.0287 3.03259C10.425 3.15302 10.6487 3.57192 10.5283 3.96824L9.82559 6.28077C9.70517 6.67709 9.28626 6.90075 8.88994 6.78033C8.49362 6.65991 8.26996 6.241 8.39038 5.84468L9.09305 3.53215C9.21347 3.13583 9.63238 2.91217 10.0287 3.03259Z" fill="#4A4A4A"/>
<path d="M16 3.75023C16 3.33601 15.6642 3.00023 15.25 3.00023C14.8358 3.00023 14.5 3.33601 14.5 3.75023V4.00023H14.25C13.8358 4.00023 13.5 4.33601 13.5 4.75023C13.5 5.16444 13.8358 5.50023 14.25 5.50023H14.5V5.75023C14.5 6.16444 14.8358 6.50023 15.25 6.50023C15.6642 6.50023 16 6.16444 16 5.75023V5.50023H16.25C16.6642 5.50023 17 5.16444 17 4.75023C17 4.33601 16.6642 4.00023 16.25 4.00023H16V3.75023Z" fill="#4A4A4A"/>
<path fill-rule="evenodd" clip-rule="evenodd" d="M8.30637 7.74586C7.43965 6.87913 5.97344 7.14895 5.47204 8.26744L3.37941 12.9356C2.91264 13.9769 3.1374 15.1982 3.94427 16.0051L3.99505 16.0559C4.80192 16.8627 6.02325 17.0875 7.0645 16.6207L11.7327 14.5281C12.8512 14.0267 13.121 12.5605 12.2543 11.6938L8.30637 7.74586ZM6.84081 8.88103C6.91244 8.72124 7.12189 8.6827 7.24571 8.80652L11.1936 12.7544C11.3174 12.8782 11.2789 13.0877 11.1191 13.1593L6.45091 15.2519C5.97762 15.4641 5.42247 15.362 5.05571 14.9952L5.00493 14.9444C4.63817 14.5777 4.53601 14.0225 4.74818 13.5492L6.84081 8.88103Z" fill="#4A4A4A"/>
<path d="M5.75 3.00023C6.16421 3.00023 6.5 3.33601 6.5 3.75023V4.00023H6.75C7.16421 4.00023 7.5 4.33601 7.5 4.75023C7.5 5.16444 7.16421 5.50023 6.75 5.50023H6.5V5.75023C6.5 6.16444 6.16421 6.50023 5.75 6.50023C5.33579 6.50023 5 6.16444 5 5.75023V5.50023H4.75C4.33579 5.50023 4 5.16444 4 4.75023C4 4.33601 4.33579 4.00023 4.75 4.00023H5V3.75023C5 3.33601 5.33579 3.00023 5.75 3.00023Z" fill="#4A4A4A"/>
<path d="M16 13.2502C16 12.836 15.6642 12.5002 15.25 12.5002C14.8358 12.5002 14.5 12.836 14.5 13.2502V13.5002H14.25C13.8358 13.5002 13.5 13.836 13.5 14.2502C13.5 14.6644 13.8358 15.0002 14.25 15.0002H14.5V15.2502C14.5 15.6644 14.8358 16.0002 15.25 16.0002C15.6642 16.0002 16 15.6644 16 15.2502V15.0002H16.25C16.6642 15.0002 17 14.6644 17 14.2502C17 13.836 16.6642 13.5002 16.25 13.5002H16V13.2502Z" fill="#4A4A4A"/>
<path d="M13.5303 7.53056C13.8232 7.23766 13.8232 6.76279 13.5303 6.4699C13.2374 6.177 12.7626 6.177 12.4697 6.4699L11.4697 7.4699C11.1768 7.76279 11.1768 8.23766 11.4697 8.53056C11.7626 8.82345 12.2374 8.82345 12.5303 8.53056L13.5303 7.53056Z" fill="#4A4A4A"/>
<path d="M16.5782 11.0318C16.9764 10.9176 17.2065 10.5022 17.0923 10.104C16.978 9.70588 16.5626 9.47574 16.1645 9.58999L13.8217 10.2623C13.4235 10.3765 13.1934 10.7919 13.3076 11.1901C13.4219 11.5882 13.8373 11.8184 14.2354 11.7041L16.5782 11.0318Z" fill="#4A4A4A"/>
</svg>

<svg viewBox="0 0 20 20" xmlns="http://www.w3.org/2000/svg"><path d="M10.029 3.033c.396.12.62.539.5.935l-.703 2.313a.75.75 0 0 1-1.436-.436l.703-2.313a.75.75 0 0 1 .936-.5Z" fill="#5C5F62"/><path d="M16 3.75a.75.75 0 0 0-1.5 0v.25h-.25a.75.75 0 0 0 0 1.5h.25v.25a.75.75 0 0 0 1.5 0v-.25h.25a.75.75 0 0 0 0-1.5h-.25v-.25Z" fill="#5C5F62"/><path fill-rule="evenodd" d="M8.306 7.746a1.75 1.75 0 0 0-2.834.521l-2.093 4.669a2.75 2.75 0 0 0 .565 3.07l.051.05a2.75 2.75 0 0 0 3.07.565l4.668-2.093a1.75 1.75 0 0 0 .521-2.834l-3.948-3.948Zm-1.465 1.135a.25.25 0 0 1 .405-.074l3.948 3.947a.25.25 0 0 1-.075.405l-4.668 2.093a1.25 1.25 0 0 1-1.395-.257l-.051-.05a1.25 1.25 0 0 1-.257-1.396l2.093-4.668Z" fill="#5C5F62"/><path d="M5.75 3a.75.75 0 0 1 .75.75v.25h.25a.75.75 0 1 1 0 1.5h-.25v.25a.75.75 0 0 1-1.5 0v-.25h-.25a.75.75 0 0 1 0-1.5h.25v-.25a.75.75 0 0 1 .75-.75Z" fill="#5C5F62"/><path d="M16 13.25a.75.75 0 0 0-1.5 0v.25h-.25a.75.75 0 0 0 0 1.5h.25v.25a.75.75 0 0 0 1.5 0v-.25h.25a.75.75 0 0 0 0-1.5h-.25v-.25Z" fill="#5C5F62"/><path d="M13.53 7.53a.75.75 0 0 0-1.06-1.06l-1 1a.75.75 0 0 0 1.06 1.06l1-1Z" fill="#5C5F62"/><path d="M16.578 11.032a.75.75 0 1 0-.413-1.442l-2.343.672a.75.75 0 1 0 .413 1.442l2.343-.672Z" fill="#5C5F62"/></svg>
